brandFactory_export/2.Regular/Configurar decodificador tv_2Regular.svg

<?xml version="1.0" encoding="UTF-8"?>
<svg width="24px" height="24px" viewBox="0 0 24 24" version="1.1" xmlns="http://www.w3.org/2000/svg" xmlns:xlink="http://www.w3.org/1999/xlink">
    <title>2.Regular/Configurar decodificador tv_2Regular</title>
    <g id="Symbols" stroke="none" stroke-width="1" fill="none" fill-rule="evenodd">
        <g id="2.Regular/Configurar-decodificador-tv_2Regular" fill="#5CB615" fill-rule="nonzero">
            <path d="M15.4117647,4.01344538 C15.9697479,4.01344538 16.4201681,4.46386555 16.4201681,5.02521008 L16.4201681,5.02521008 L16.4201681,5.65378151 C16.5109244,5.67731092 16.5983193,5.70756303 16.6857143,5.73781513 L16.6857143,5.73781513 L17.112605,5.31092437 C17.5058824,4.91764706 18.1445378,4.91764706 18.5378151,5.31092437 L18.5378151,5.31092437 L19.4184874,6.19159664 C19.8117647,6.58487395 19.8117647,7.22352941 19.4184874,7.61680672 L19.4184874,7.61680672 L18.9915966,8.04369748 C19.0218487,8.13109244 19.0487395,8.21848739 19.0756303,8.3092437 L19.0756303,8.3092437 L19.7042017,8.3092437 C20.2621849,8.3092437 20.712605,8.75966387 20.712605,9.31764706 L20.712605,9.31764706 L20.712605,10.5613445 C20.712605,11.1193277 20.2621849,11.5697479 19.7042017,11.5697479 L19.7042017,11.5697479 L19.0756303,11.5697479 C19.0521008,11.6605042 19.0218487,11.7478992 18.9915966,11.8352941 L18.9915966,11.8352941 L19.4184874,12.2588235 C19.5183461,12.3586822 19.5928493,12.4743611 19.6419969,12.5978261 L21.0487395,12.5983193 C22.4739496,12.5983193 23.6268908,13.7546218 23.6268908,15.1764706 L23.6268908,17.6 C23.6268908,19.0218487 22.4739496,20.1747899 21.0487395,20.1781513 L2.57815126,20.1781513 C1.15630252,20.1747899 -5.63478153e-10,19.0218487 -5.63478153e-10,17.6 L-5.63478153e-10,15.1764706 C-5.63478153e-10,13.7512605 1.15630252,12.5983193 2.57815126,12.5983193 L9.94119641,12.5978261 C9.99034402,12.4743611 10.0648472,12.3586822 10.1647059,12.2588235 L10.1647059,12.2588235 L10.5915966,11.8319328 C10.5613445,11.7445378 10.5344538,11.6571429 10.507563,11.5663866 L10.507563,11.5663866 L9.8789916,11.5663866 C9.3210084,11.5663866 8.87058823,11.1159664 8.87058823,10.5579832 L8.87058823,10.5579832 L8.87058823,9.31428571 C8.87058823,8.75630252 9.3210084,8.30588235 9.8789916,8.30588235 L9.8789916,8.30588235 L10.507563,8.30588235 C10.5310924,8.21512605 10.5613445,8.12773109 10.5915966,8.04033613 L10.5915966,8.04033613 L10.1647059,7.61344538 C9.77142857,7.22016807 9.77142857,6.58151261 10.1647059,6.18823529 L10.1647059,6.18823529 L11.0420168,5.30756303 C11.4352941,4.91428571 12.0739496,4.91428571 12.4672269,5.30756303 L12.4672269,5.30756303 L12.8941176,5.73445378 C12.9815126,5.70420168 13.0689076,5.67731092 13.1596639,5.65042017 L13.1596639,5.65042017 L13.1596639,5.02184874 C13.1596639,4.46386555 13.610084,4.01344538 14.1680672,4.01344538 L14.1680672,4.01344538 Z M19.16,13.9404454 L18.5378151,14.5613445 C18.1445378,14.9546218 17.5058824,14.9546218 17.112605,14.5613445 L17.112605,14.5613445 L16.6857143,14.1344538 C16.5983193,14.1647059 16.5109244,14.1915966 16.4201681,14.2184874 L16.4201681,14.2184874 L16.4201681,14.8470588 C16.4201681,15.405042 15.9697479,15.8554622 15.4117647,15.8554622 L15.4117647,15.8554622 L14.1680672,15.8554622 C13.610084,15.8554622 13.1596639,15.405042 13.1596639,14.8470588 L13.1596639,14.8470588 L13.1596639,14.2184874 C13.0689076,14.194958 12.9815126,14.1647059 12.8941176,14.1344538 L12.8941176,14.1344538 L12.4672269,14.5613445 C12.0739496,14.9546218 11.4352941,14.9546218 11.0420168,14.5613445 L11.0420168,14.5613445 L10.4222823,13.9427473 C10.4182246,13.9428204 10.4141584,13.9428571 10.410084,13.9428571 L2.57815126,13.9428571 C1.89579832,13.9428571 1.34453781,14.4941176 1.34453781,15.1764706 L1.34453781,17.6 C1.34453781,18.2823529 1.89579832,18.8336134 2.57815126,18.8336134 L21.0487395,18.8336134 C21.7310924,18.8336134 22.2823529,18.2823529 22.2823529,17.6 L22.2823529,15.1764706 C22.2823529,14.4941176 21.7310924,13.9428571 21.0487395,13.9428571 L19.189916,13.9428571 L19.16,13.9404454 Z M19.6134454,16.7630252 C20.0067227,16.7630252 20.3260504,17.0823529 20.3260504,17.4756303 C20.3260504,17.8689076 20.0067227,18.1882353 19.6134454,18.1882353 L16.4268908,18.1882353 C16.0336134,18.1882353 15.7142857,17.8689076 15.7142857,17.4756303 C15.7142857,17.0823529 16.0336134,16.7630252 16.4268908,16.7630252 L19.6134454,16.7630252 Z M3.53277311,16.9277311 C3.83536946,16.9277311 4.08067227,17.1730339 4.08067227,17.4756303 C4.08067227,17.7782266 3.83536946,18.0235294 3.53277311,18.0235294 C3.23017676,18.0235294 2.98487395,17.7782266 2.98487395,17.4756303 C2.98487395,17.1730339 3.23017676,16.9277311 3.53277311,16.9277311 Z M5.56638655,16.9277311 C5.8689829,16.9277311 6.11428571,17.1730339 6.11428571,17.4756303 C6.11428571,17.7782266 5.8689829,18.0235294 5.56638655,18.0235294 C5.2637902,18.0235294 5.01848739,17.7782266 5.01848739,17.4756303 C5.01848739,17.1730339 5.2637902,16.9277311 5.56638655,16.9277311 Z M7.53277311,16.9277311 C7.83536946,16.9277311 8.08067227,17.1730339 8.08067227,17.4756303 C8.08067227,17.7782266 7.83536946,18.0235294 7.53277311,18.0235294 C7.23017676,18.0235294 6.98487395,17.7782266 6.98487395,17.4756303 C6.98487395,17.1730339 7.23017676,16.9277311 7.53277311,16.9277311 Z M15.4117647,5.02184874 L14.1680672,5.02184874 L14.1680672,6.48067227 C13.5865546,6.54117647 13.0890756,6.69579832 12.6756303,6.94453782 L12.6756303,6.94453782 L11.7512605,6.02016807 L10.8739496,6.89747899 L11.7983193,7.82184874 C11.5563025,8.22521008 11.3983193,8.72268908 11.3344538,9.31428571 L11.3344538,9.31428571 L9.87563025,9.31428571 L9.87563025,10.5579832 L11.3344538,10.5579832 C11.394958,11.1495798 11.5529412,11.6470588 11.7983193,12.0504202 L11.7983193,12.0504202 L10.9617066,12.8874947 C11.0209825,12.9724307 11.0611987,13.0715315 11.0760175,13.1784593 L11.7478992,13.8554622 L12.6722689,12.9310924 C13.0857143,13.1798319 13.5865546,13.3310924 14.1647059,13.394958 L14.1647059,13.394958 L14.1647059,14.8537815 L15.4084034,14.8537815 L15.4084034,13.394958 C15.989916,13.3344538 16.487395,13.1798319 16.9008403,12.9310924 L16.9008403,12.9310924 L17.8252101,13.8554622 L18.5277825,13.1543092 C18.5439458,13.0625904 18.5788686,12.9771255 18.6284108,12.9020546 L17.7815126,12.0537815 C18.0235294,11.6504202 18.1815126,11.1529412 18.2453782,10.5613445 L18.2453782,10.5613445 L19.7042017,10.5613445 L19.7042017,9.31764706 L18.2453782,9.31764706 C18.1848739,8.72605042 18.0268908,8.22857143 17.7815126,7.82521008 L17.7815126,7.82521008 L18.7092437,6.89747899 L17.8285714,6.02016807 L16.9042017,6.94453782 C16.4907563,6.69579832 15.989916,6.54453782 15.4117647,6.48067227 L15.4117647,6.48067227 L15.4117647,5.02184874 Z M14.789916,7.18319328 C15.6201681,7.18319328 16.2890756,7.41848739 16.7764706,7.88907563 C17.2840336,8.37983193 17.5428571,9.06554622 17.5428571,9.93613445 C17.5428571,10.8067227 17.2840336,11.492437 16.7764706,11.9831933 C16.2890756,12.4504202 15.6201681,12.6890756 14.789916,12.6890756 C13.9596639,12.6890756 13.2907563,12.4537815 12.8033613,11.9831933 C12.2957983,11.492437 12.0369748,10.8067227 12.0369748,9.93613445 C12.0369748,9.06554622 12.2957983,8.37983193 12.8033613,7.88907563 C13.2907563,7.42184874 13.9596639,7.18319328 14.789916,7.18319328 Z M14.789916,8.19159664 C13.6840336,8.19159664 13.0453782,8.74285714 13.0453782,9.93613445 C13.0453782,11.1294118 13.6840336,11.6806723 14.789916,11.6806723 C15.8957983,11.6806723 16.5344538,11.1294118 16.5344538,9.93613445 C16.5344538,8.74285714 15.8957983,8.19159664 14.789916,8.19159664 Z" id="Configurar-decodificador-tv_2Regular"></path>
        </g>
    </g>
</svg>

<svg width="24" height="24" viewBox="0 0 24 24" xmlns="http://www.w3.org/2000/svg"><path d="M15.412 4.013c.558 0 1.008.45 1.008 1.012v.629c.09.023.178.054.266.084l.427-.427a1.008 1.008 0 011.425 0l.88.88a1.008 1.008 0 010 1.426l-.426.427c.03.087.057.174.084.265h.628c.558 0 1.009.45 1.009 1.009v1.243c0 .558-.45 1.009-1.009 1.009h-.628c-.024.09-.054.178-.084.265l.426.424c.1.1.175.215.224.339h1.407a2.579 2.579 0 012.578 2.578V17.6a2.58 2.58 0 01-2.578 2.578H2.579A2.583 2.583 0 010 17.6v-2.424a2.579 2.579 0 012.578-2.578h7.363c.05-.124.124-.24.224-.34l.427-.426a6.13 6.13 0 01-.084-.266h-.629c-.558 0-1.008-.45-1.008-1.008V9.314c0-.558.45-1.008 1.008-1.008h.629c.023-.09.053-.178.084-.266l-.427-.427a1.008 1.008 0 010-1.425l.877-.88a1.008 1.008 0 011.425 0l.427.426a6.13 6.13 0 01.266-.084v-.628c0-.558.45-1.009 1.008-1.009zm3.748 9.927l-.622.621a1.008 1.008 0 01-1.425 0l-.427-.427a6.13 6.13 0 01-.266.084v.63c0 .557-.45 1.007-1.008 1.007h-1.244c-.558 0-1.008-.45-1.008-1.008v-.629c-.091-.023-.178-.053-.266-.084l-.427.427a1.008 1.008 0 01-1.425 0l-.62-.618H2.578c-.682 0-1.233.551-1.233 1.233V17.6c0 .682.55 1.234 1.233 1.234h18.47c.683 0 1.234-.552 1.234-1.234v-2.424c0-.682-.55-1.233-1.233-1.233h-1.86l-.029-.003zm.453 2.823a.713.713 0 010 1.425h-3.186a.713.713 0 010-1.425h3.186zm-16.08.165a.548.548 0 110 1.096.548.548 0 010-1.096zm2.033 0a.548.548 0 110 1.096.548.548 0 010-1.096zm1.967 0a.548.548 0 110 1.096.548.548 0 010-1.096zm7.879-11.906h-1.244V6.48c-.581.06-1.079.215-1.492.464l-.925-.925-.877.877.924.925c-.242.403-.4.9-.464 1.492H9.876v1.244h1.458c.061.592.219 1.09.464 1.492l-.836.837c.059.085.1.185.114.291l.672.677.924-.924c.414.249.915.4 1.493.464v1.459h1.243v-1.459c.582-.06 1.08-.215 1.493-.464l.924.924.703-.7a.668.668 0 01.1-.253l-.846-.848c.242-.404.4-.901.463-1.493h1.46V9.318h-1.46c-.06-.592-.218-1.09-.463-1.493l.927-.928-.88-.877-.925.925c-.413-.25-.914-.4-1.492-.464V5.02zm-.622 2.161c.83 0 1.5.235 1.986.706.508.49.767 1.177.767 2.047 0 .87-.259 1.556-.767 2.047-.487.467-1.156.706-1.986.706-.83 0-1.5-.235-1.987-.706-.507-.49-.766-1.176-.766-2.047 0-.87.259-1.556.766-2.047.488-.467 1.157-.706 1.987-.706zm0 1.009c-1.106 0-1.745.55-1.745 1.744 0 1.193.639 1.745 1.745 1.745s1.744-.552 1.744-1.745-.638-1.744-1.744-1.744z" fill="#5CB615" fill-rule="nonzero"/></svg>
